actions/24/go-previous-symbolic.svg

<?xml version="1.0" encoding="UTF-8" standalone="no"?>
<svg
   xmlns:dc="http://purl.org/dc/elements/1.1/"
   xmlns:cc="http://creativecommons.org/ns#"
   xmlns:rdf="http://www.w3.org/1999/02/22-rdf-syntax-ns#"
   xmlns:svg="http://www.w3.org/2000/svg"
   xmlns="http://www.w3.org/2000/svg"
   xmlns:sodipodi="http://sodipodi.sourceforge.net/DTD/sodipodi-0.dtd"
   xmlns:inkscape="http://www.inkscape.org/namespaces/inkscape"
   inkscape:version="1.0 (4035a4fb49, 2020-05-01)"
   sodipodi:docname="go-previous-symbolic.svg"
   id="svg6"
   version="1.1"
   width="24"
   height="24">
  <sodipodi:namedview
     inkscape:current-layer="svg6"
     inkscape:window-maximized="1"
     inkscape:window-y="30"
     inkscape:window-x="0"
     inkscape:cy="12"
     inkscape:cx="11.904459"
     inkscape:zoom="26.166667"
     showgrid="true"
     id="namedview6"
     inkscape:window-height="837"
     inkscape:window-width="1600"
     inkscape:pageshadow="2"
     inkscape:pageopacity="0"
     guidetolerance="10"
     gridtolerance="10"
     objecttolerance="10"
     borderopacity="1"
     bordercolor="#666666"
     pagecolor="#ffffff">
    <inkscape:grid
       id="grid870"
       type="xygrid" />
  </sodipodi:namedview>
  <metadata
     id="metadata12">
    <rdf:RDF>
      <cc:Work
         rdf:about="">
        <dc:format>image/svg+xml</dc:format>
        <dc:type
           rdf:resource="http://purl.org/dc/dcmitype/StillImage" />
        <dc:title></dc:title>
      </cc:Work>
    </rdf:RDF>
  </metadata>
  <defs
     id="defs10" />
  <path
     d="m 11.000024,4 c 0.554,0 1,0.446 1,1 V 9 H 20 c 0.554,0 1,0.446 1,1 v 3 c 0,0.554 -0.446,1 -1,1 h -7.999977 v 4 c 0,0.554 -0.445999,1 -1,1 -0.298584,0 -0.565122,-0.129747 -0.748046,-0.335938 L 3.273438,12.185547 C 3.104355,12.006452 3,11.76574 3,11.5 3,11.23426 3.104355,10.993548 3.273438,10.814453 L 10.251977,4.3359375 C 10.434902,4.129747 10.70144,4 11.000024,4 Z"
     style="opacity:1;fill:#555761;stroke:none;stroke-width:4;stroke-linecap:round;stroke-linejoin:round;stop-color:#000000"
     id="path873-5-3"
     sodipodi:nodetypes="sscsssscssccsccs" />
</svg>

<svg
        xmlns='http://www.w3.org/2000/svg'
        xmlns:svg='http://www.w3.org/2000/svg'
        id='svg6'
        width='24'
        height='24'>
  <path
          id='path873-5-3'
          opacity='1'
          fill='url(#gpa:foreground) #555761'
          fill-opacity='1'
          fill-rule='nonzero'
          stroke='none'
          stroke-width='4'
          stroke-linecap='round'
          stroke-linejoin='round'
          d='M 11 4 C 11.554 4, 12 4.446, 12 5 L 12 9 L 20 9 C 20.554 9, 21 9.446, 21 10 L 21 13 C 21 13.554, 20.554 14, 20 14 L 12 14 L 12 18 C 12 18.554, 11.554 19, 11 19 C 10.7014 19, 10.4349 18.8703, 10.252 18.6641 L 3.27344 12.1855 C 3.10436 12.0065, 3 11.7657, 3 11.5 C 3 11.2343, 3.10436 10.9935, 3.27344 10.8145 L 10.252 4.33594 C 10.4349 4.12975, 10.7014 4, 11 4 Z'
          class="foreground">
  </path>
</svg>
